public/assets/img/gear.svg

<svg width="24" height="24" viewBox="0 0 24 24" fill="none" xmlns="http://www.w3.org/2000/svg">
<path fill-rule="evenodd" clip-rule="evenodd" d="M14.1875 19.8672C14.0312 20.5234 13.4844 20.9531 12.7891 20.9531H11.2031C10.5156 20.9531 9.96875 20.5234 9.8125 19.8672L9.50781 18.5625L9.34375 18.5L8.20312 19.2031C7.625 19.5625 6.92969 19.4688 6.45312 18.9766L5.35156 17.8828C4.85938 17.3828 4.77344 16.7031 5.13281 16.1328L5.83594 15L5.78125 14.8438L4.47656 14.5312C3.82812 14.375 3.39844 13.8281 3.39844 13.1406V11.6094C3.39844 10.9297 3.82031 10.3828 4.47656 10.2188L5.76562 9.89844L5.83594 9.73438L5.125 8.60156C4.76562 8.03906 4.85156 7.35938 5.34375 6.85156L6.44531 5.75C6.92188 5.26562 7.60938 5.17188 8.19531 5.53125L9.32812 6.22656L9.50781 6.15625L9.8125 4.85156C9.96875 4.19531 10.5156 3.76562 11.2031 3.76562H12.7891C13.4844 3.76562 14.0312 4.19531 14.1875 4.85156L14.4844 6.15625L14.6641 6.22656L15.8047 5.53125C16.3828 5.17188 17.0703 5.26562 17.5547 5.75L18.6484 6.85156C19.1406 7.35938 19.2344 8.03906 18.8672 8.60156L18.1641 9.73438L18.2266 9.89844L19.5156 10.2188C20.1719 10.375 20.6016 10.9297 20.6016 11.6094V13.1406C20.6016 13.8281 20.1719 14.3672 19.5156 14.5312L18.2188 14.8438L18.1562 15L18.8672 16.1328C19.2266 16.7031 19.1406 17.3828 18.6484 17.8828L17.5469 18.9766C17.0625 19.4688 16.375 19.5625 15.7969 19.2031L14.6562 18.5L14.4844 18.5625L14.1875 19.8672ZM11.4609 19.3516H12.5391C12.6719 19.3516 12.7266 19.2969 12.75 19.1797L13.2109 17.2734C13.7578 17.1484 14.2109 16.9531 14.6406 16.6797L16.3125 17.7031C16.4062 17.7656 16.5 17.7578 16.5938 17.6719L17.3359 16.9219C17.4297 16.8359 17.4297 16.7422 17.3672 16.6484L16.3359 14.9766C16.5859 14.5703 16.7969 14.0703 16.9062 13.5625L18.8281 13.1094C18.9453 13.0859 19 13.0234 19 12.8984V11.8516C19 11.7109 18.9453 11.6562 18.8281 11.6328L16.9141 11.1719C16.7969 10.6484 16.5703 10.1406 16.3516 9.75L17.375 8.08594C17.4375 7.98438 17.4375 7.89062 17.3516 7.80469L16.6016 7.0625C16.5 6.97656 16.4219 6.96875 16.3125 7.03125L14.6484 8.04688C14.2266 7.79688 13.7422 7.57812 13.2109 7.46094L12.75 5.53906C12.7266 5.42188 12.6719 5.36719 12.5391 5.36719H11.4609C11.3281 5.36719 11.2656 5.42188 11.25 5.53906L10.7891 7.44531C10.2656 7.57812 9.71094 7.80469 9.34375 8.04688L7.67969 7.02344C7.57031 6.96094 7.48438 6.96875 7.39062 7.0625L6.64062 7.79688C6.54688 7.88281 6.55469 7.97656 6.61719 8.08594L7.64844 9.75C7.42188 10.1406 7.19531 10.6484 7.07812 11.1797L5.17188 11.6328C5.04688 11.6562 4.99219 11.7109 4.99219 11.8516V12.8984C4.99219 13.0234 5.05469 13.0859 5.17188 13.1094L7.08594 13.5625C7.19531 14.0703 7.41406 14.5625 7.65625 14.9766L6.625 16.6484C6.5625 16.75 6.5625 16.8438 6.64844 16.9297L7.39844 17.6797C7.49219 17.7656 7.58594 17.7734 7.67969 17.7109L9.35156 16.6797C9.77344 16.9531 10.2734 17.1562 10.7891 17.2734L11.25 19.1797C11.2656 19.2969 11.3281 19.3516 11.4609 19.3516ZM12 15.3203C13.6172 15.3203 14.9453 13.9844 14.9453 12.3594C14.9453 10.7422 13.6172 9.42188 12 9.42188C10.375 9.42188 9.03906 10.7422 9.03906 12.3594C9.03906 13.9844 10.375 15.3203 12 15.3203ZM10.5078 12.3594C10.5078 13.1875 11.1797 13.8594 12 13.8594C12.8047 13.8594 13.4766 13.1797 13.4766 12.3594C13.4766 11.5547 12.8047 10.875 12 10.875C11.1875 10.875 10.5078 11.5469 10.5078 12.3594Z" fill="white"/>
</svg>

<svg width="24" height="24" fill="none" xmlns="http://www.w3.org/2000/svg"><path fill-rule="evenodd" clip-rule="evenodd" d="M14.188 19.867c-.157.656-.704 1.086-1.399 1.086h-1.586c-.687 0-1.234-.43-1.39-1.086l-.305-1.305-.164-.062-1.14.703c-.579.36-1.274.266-1.75-.226l-1.102-1.094c-.493-.5-.579-1.18-.22-1.75L5.837 15l-.055-.156-1.304-.313c-.649-.156-1.079-.703-1.079-1.39v-1.532c0-.68.422-1.226 1.079-1.39l1.289-.32.07-.165-.711-1.132c-.36-.563-.273-1.243.219-1.75L6.445 5.75c.477-.484 1.164-.578 1.75-.219l1.133.696.18-.07.305-1.305c.156-.657.703-1.086 1.39-1.086h1.586c.695 0 1.242.43 1.399 1.086l.296 1.304.18.07 1.14-.695c.579-.36 1.266-.265 1.75.219l1.094 1.102c.493.507.586 1.187.22 1.75l-.704 1.132.063.164 1.289.32c.656.157 1.086.712 1.086 1.391v1.532c0 .687-.43 1.226-1.086 1.39l-1.297.313-.063.156.711 1.133c.36.57.274 1.25-.219 1.75l-1.101 1.094c-.485.492-1.172.585-1.75.226l-1.14-.703-.173.063-.296 1.304Zm-2.727-.515h1.078c.133 0 .188-.055.211-.172l.46-1.907c.548-.125 1-.32 1.43-.593l1.672 1.023c.094.063.188.055.282-.031l.742-.75c.094-.086.094-.18.031-.274l-1.031-1.671a4.63 4.63 0 0 0 .57-1.415l1.922-.453c.117-.023.172-.086.172-.21v-1.047c0-.141-.055-.196-.172-.22l-1.914-.46a5.457 5.457 0 0 0-.562-1.422l1.023-1.664c.063-.102.063-.195-.023-.281l-.75-.742c-.102-.086-.18-.094-.29-.032l-1.664 1.016a4.916 4.916 0 0 0-1.437-.586l-.461-1.922c-.023-.117-.078-.172-.21-.172h-1.08c-.132 0-.194.055-.21.172l-.46 1.906c-.524.133-1.08.36-1.446.602L7.68 7.023c-.11-.062-.196-.054-.29.04l-.75.734c-.093.086-.085.18-.023.289L7.648 9.75c-.226.39-.453.898-.57 1.43l-1.906.453c-.125.023-.18.078-.18.219v1.046c0 .125.063.188.18.211l1.914.454c.11.507.328 1 .57 1.414l-1.031 1.671c-.063.102-.063.196.023.282l.75.75c.094.086.188.093.282.03l1.672-1.03c.421.273.921.476 1.437.593l.461 1.907c.016.117.078.172.21.172ZM12 15.32c1.617 0 2.945-1.336 2.945-2.96A2.95 2.95 0 0 0 12 9.421c-1.625 0-2.96 1.32-2.96 2.937A2.974 2.974 0 0 0 12 15.32Zm-1.492-2.96c0 .828.672 1.5 1.492 1.5.805 0 1.477-.68 1.477-1.5 0-.805-.672-1.485-1.477-1.485a1.5 1.5 0 0 0-1.492 1.484Z" fill="#000" fill-opacity=".4"/></svg>
